papirus/16x16/apps/pencil.svg

<svg height="16" viewBox="0 0 16 16" width="16" xmlns="http://www.w3.org/2000/svg"><circle cx="8" cy="8" fill="#ccc" r="8"/><path d="m10 5.5l-4 2v8.234375a8 8 0 0 0 2 .265625 8 8 0 0 0  6-2.71875v-5.78125z" fill="#4e4e4e" fill-rule="evenodd"/><path d="m10 6.5l-3 1.5v7.929688a8 8 0 0 0 1 .070312 8 8 0 0 0  5-1.755859v-6.244141z" fill="#fea332" fill-rule="evenodd"/><path d="m11 8a1 1.0000405 0 0 1 -.5.86602 1 1.0000405 0 0 1 -1 0 1 1.0000405 0 0 1 -.5-.86602" fill="#4e4e4e"/></svg>

<?xml version="1.0" encoding="UTF-8" standalone="no"?>
<svg
   xmlns:dc="http://purl.org/dc/elements/1.1/"
   xmlns:cc="http://creativecommons.org/ns#"
   xmlns:rdf="http://www.w3.org/1999/02/22-rdf-syntax-ns#"
   xmlns:svg="http://www.w3.org/2000/svg"
   xmlns="http://www.w3.org/2000/svg"
   xmlns:sodipodi="http://sodipodi.sourceforge.net/DTD/sodipodi-0.dtd"
   xmlns:inkscape="http://www.inkscape.org/namespaces/inkscape"
   version="1.1"
   id="svg2"
   viewBox="0 0 16 16"
   height="16"
   width="16"
   inkscape:version="0.91 r13725"
   sodipodi:docname="pencil.svg">
  <sodipodi:namedview
     pagecolor="#ffffff"
     bordercolor="#666666"
     borderopacity="1"
     objecttolerance="10"
     gridtolerance="10"
     guidetolerance="10"
     inkscape:pageopacity="0"
     inkscape:pageshadow="2"
     inkscape:window-width="1600"
     inkscape:window-height="849"
     id="namedview16"
     showgrid="false"
     inkscape:zoom="1"
     inkscape:cx="13.421134"
     inkscape:cy="4.0030958"
     inkscape:window-x="0"
     inkscape:window-y="0"
     inkscape:window-maximized="1"
     inkscape:current-layer="svg2" />
  <defs
     id="defs4" />
  <metadata
     id="metadata7">
    <rdf:RDF>
      <cc:Work
         rdf:about="">
        <dc:format>image/svg+xml</dc:format>
        <dc:type
           rdf:resource="http://purl.org/dc/dcmitype/StillImage" />
        <dc:title></dc:title>
      </cc:Work>
    </rdf:RDF>
  </metadata>
  <circle
     r="8"
     cy="8"
     cx="8"
     id="circle4196"
     style="opacity:1;fill:#cccccc;fill-opacity:1;stroke:none;stroke-width:10;stroke-miterlimit:4;stroke-dasharray:none;stroke-opacity:1" />
  <path
     style="fill:#4e4e4e;fill-opacity:1;fill-rule:evenodd;stroke:none;stroke-width:1px;stroke-linecap:butt;stroke-linejoin:miter;stroke-opacity:1"
     d="M 10 5.5 L 6 7.5 L 6 15.734375 A 8 8 0 0 0 8 16 A 8 8 0 0 0 14 13.28125 L 14 7.5 L 10 5.5 z "
     id="path4201" />
  <path
     style="fill:#fea332;fill-opacity:1;fill-rule:evenodd;stroke:none;stroke-width:1px;stroke-linecap:butt;stroke-linejoin:miter;stroke-opacity:1"
     d="M 10 6.5 L 7 8 L 7 15.929688 A 8 8 0 0 0 8 16 A 8 8 0 0 0 13 14.244141 L 13 8 L 10 6.5 z "
     id="path4203" />
  <path
     inkscape:connector-curvature="0"
     style="opacity:1;fill:#4e4e4e;fill-opacity:1;stroke:none;stroke-width:10;stroke-miterlimit:4;stroke-dasharray:none;stroke-opacity:1"
     id="path4212"
     d="m 11,8 a 1,1.0000405 0 0 1 -0.5,0.86602 1,1.0000405 0 0 1 -1,0 A 1,1.0000405 0 0 1 9,8" />
</svg>
